X: 21
T: Praeludia organi op. 5 – Allegretto
C: Franciszek Walczyński
%%abc-version 2.0
%%abcx-abcm2ps-target-version 5.9.1 (29 Sep 2008)
%%abc-creator hum2abc beta
%%abcx-conversion-date 2021/10/04 07:38:39
%%abc-edited-by Andrzej Borzym
%%abc-edited-by Krzysztof Stępień
%%abcx-initial-encoding-date 2021-07-26
%%humdrum-veritas 3488801243
%%humdrum-veritas-data 4102692684
%%linebreak <none>
%%barnumbers 0
L: 1/4
M: 6/4
N: Derived from pl-kozmzk--mzk-m-159--010_walczynski-franciszek--praeludia-organi-op-5-allegretto.krn
Q: "10. Allegretto."
%%staves {1 2}
V: 1 clef=treble
V: 2 clef=bass
K: E
[V:1] eBGd2c & G3^^F3 | 
[V:2] B,3^A,3 & E,3-E,3 | 
[V:1] B2FG3 & F3E3 | 
[V:2] B,3B,3 & D,3E,3 | 
[V:1] FGAG2F & E3D3 | 
[V:2] C3B,2A, & A,,G,,F,,B,,3 | 
[V:1] EF^^F!fermata!G3 & EC2^B,3 | 
[V:2] G,C,2D,3 & C,A,,2!fermata!G,,3 | 
[V:1] z6 & z6 | 
[V:2] z6 & G,^^F,G,A,2G, | 
[V:1] z6 & z6 | 
[V:2] z6 & G,2F,E,3 | 
[V:1] B^ABd2c & D3E3 | 
[V:2] B,3^A,3 & G,3^^F,3 | 
[V:1] B2FG3 & D3E3 | 
[V:2] =A,3B,3 & F,3E,3 | 
[V:1] G3A2B & E3-E3 | 
[V:2] ED=DC2G, & E,3-E,3 | 
[V:1] c2d!fermata!e3 & E2FE3 | 
[V:2] A,2^B,G,3 & A,,2G,,!fermata!C,3 | 
[V:1] FGAB2E & E3-E2^C | 
[V:2] A,B,=CB,2A, & =C,B,,A,,G,,2A,, | 
[V:1] !accent!G3G2F & E3D3 | 
[V:2] E,B,^A,=A,3- & B,,3-B,,3 | 
[V:1] [F3-D3][F3D3] & B,3-B,3 | 
[V:2] A,2>-A,2G,F, & E,3-E,3 | 
[V:1] !fermata!E6 & B,6 |]  
[V:2] G,6 & !fermata!E,,6 |]  


